X: 1
T: Aggie Whyte's
M: 4/4
L: 1/8
R: reel
K: Dmaj
dB|:A3B AF~F2|d2cA BGGB|AAFA defd|eBBA BcdB|
AFBF AF~F2|AdcA G3B|AAFA defd|1edcB cAdB:|2edcB cAde||
fd d/d/d g2ag|f2df edBc|dfaf g2bg|afdf e2de|
fd d/d/d g2ag|ffdf edBd|AAFA defd|eBBA Bcde|
fd d/d/d g2ag|f2df edBc|dfaf g2bg|afdf efga|
bf~f2 afef|defd edBd|AAFA defd|edcB cAdB|
